-----BEGIN PGP MESSAGE-----

hE4DsqZSlr1zLT0SAQdA3xlNNC1ndlDIhr7uUBEVJjLmkD34BmHvx+Bc5ggWnD4g
avcFkpk29h9RhaSBc/uMlIVkDALk7RrcguBAI9YP4mnS6gGjaX5o23SsXmbGGOay
aIH8+Zdrg874vOPqbGLeVdT+L24TqM6Hffgmy2JjWaL8c6UbTtVVzYfTYJ+OND7R
eJVeR2Hg9wZPu34ezjB6KOjAdH/Hc+Vpxfzlzx5mWaC4VQA0EiAAtjo6RSqETPJ+
mohR79Y8/x5V+2u9p+KxIUlimVjMTqLLQ2/vqfjPkT3bD4U9uCMa881EeVXOu+X8
2D9jmjwym1VdAQzIniglXS4WyJFK0sllg/UWKmt+1DpOy31YoJRQklA6YVtaAbQD
RzAVxhO7XhpeNEekN8T9Ukg+BbV2BtzfdP9u3/gBCXUTzhua+W2QGmAHlvMgDZqC
VJr9ImUidjfcP/7HHxq8oi5R5TfjwvhjAt66D7V7ADXq7Yp4ROJdGlKKK089AXNo
N+dZGL74X0xhs4LqZxigY4hWGu2FAiPwJRtjReKHcESOybSdT5NdIng4aDmEMkUs
lLjd4QkrpU+CBUBTGc3Zb5hcWeCh3Q4wYBbtuwxzPD95udMtocrqNJNTfr3eElMY
JkhB+a/Tox4NLlxJrtIwziqVPdCIaJrHZy8hDSlcAJAmNqF/aGJKbHI17rIDiBBq
3FoqAg+VH0qhGGUCahNO3yVhT1xKiEfVZC7cLS4/h2tfGD3b7AuSHzA3b4Juwi2F
K/rpp6ZTgHwmB9CZCwllms0UNDnsAk2mGL4NNGILyOqG/1ZQFqCYvk3jAdxSJPyc
L7br3DAvWCrgzyLXncCHqeaPnRwrVFW3tcvJ9nWDTsGgfAcnnbivQR9XFzZP9azX
wvGs6NtArM0pQSuaW6atGTvW5ONwzB/qmLfFKzVlhz+LdGG/zkk+zdd6BnWyx/ym
tFZuUBvR+wOJKWzhzqlvTlqQeHzPqAbzmF9ABBuCARuhzPNABTSJwMI2Fl4aamqy
gkJZb5FfdehxLG4+4b87zmH7zn3KtpU+KiX0mCzfItSRi7uzT23IgMUufFJLb1ex
MQ+0s/REg0vGRzVgK+HSEAP7wOSP7YstWguLIN9KTGv65xgm2kL7SvV1pNppFbqq
Qcp3j9YEXOzsc0aPyUwFUivpxR3s1Yl1pt/gyE9QP3t+LvsF2DbjBwv6Tq/M5wzX
rZIpJWizpcsBC8wOTfSd4ebp1e6nE/qoGS/Dnw663WYNARPE4PddFWp1Rx4eyGu+
NBGU5IrDEjal0JZBEkpLAT/DtP+QHEv6rUkPhUbHWYKE5US+2x0CnQu1fCM2gViV
4BcKzBE0wcDIaGrEEZrTdWtXHik80TO7JSgXZkEq4qQZaRW8sh74JMMcRP+P6KcX
huDZcET3n/RlxFuPDlNJStWJWgJ2QhUzmOCNd2qznx/5qYmBDO64Ua4vHEcvF/jy
9wDqaw9U4IFixqwbdUDFdtGp9m3ou7l2qsq/Bz/ThGTxZ2fN0ym8+BBAIYHfxTva
EeK2uUaVWRBvtK5H8uONPIKMvddzYbEMJJvFTlOUSnYGnvFERuTVqXjkcelMZYt9
0oi2oRHl1PytuM2iyqyR3wl7rYh5S0TDq2ZrWM08isFlGA8Wyjq3pBUob77Q1pA/
sKxpAz2WETEfd4oTW1g1udtjXiODS/15/Ewx/vjFh64q2Di83BtVw5ydM5KR75no
9SZntifwV8NrZsuZzsA4iLseaRH60Pp1l4ycHkIbPohQbFhnuyimMdo7XkP7h27/
Ck26tElSr/OZN+73JtnvSdkxW5Hl6/DVIVuTId803W0LHWSTrNnIWlzR3gzqzMeX
nwAdSgRK6/yfJGwiq33t3x8Xfp2B8VULv2ktz+4rwLjPqiZANxJKp1Ivr7wNeqT2
8tKJn3puekCTxyG+bAj2cgaddUB6tNpLVjM6IYsR1UN0h3nWcDZQkKTa9Uj61cZd
7r0j+X/IrNp+feoie/vd7J9qe2G9Tsr40zYCtziPplRmp5rZeoM7S9ITbjNxNYgp
6BLgDBgh1uDsxHv5Ki9aiQ8HyAL+Wh23Qsp8uEBFKFkLOtWD683My9uRleUb0DjU
CwscLKxvw6FrBjZ7UdRV0TNXZOnE8jOJ/YwJ528uPnwvCM3XILg6ddYN2lT7gG0Z
ctLPGJbg0HlZSRoUP/GwRv2GxA2Mwc55h5d9eMQr9RFO5n9tSwih2qtSJaYWVqOb
za2jtb0RXAcrtLV2cylmAta/l4oc9jTnJM5NAhVgVOtrTJj1M7FUe18uV8YW2q9W
fif8O4lDBJ0DVaY2YMJYcJ2yNFaFdMSxE4NPCCsiwPhHajdVB13tHJbscsHBFQZR
EqT/4DuK/tXh8dHsdtajTfVUthKG/411Xn7UVtpWW8qb/eIwCyZst6BtkcxG1IEd
Ir3Z2tN6WQgVcjGO7n+Dgv2xXFVLyiCmnX7MK+ARnS9Ji2wqCmycu4rvhTM8aUOo
At3vpHhDLpWxnwlCbs6owqcYiNKAZYLt136FNoGVQ3UXdF2Jvt3aQ2E/BRTq99IO
c1SP1ADuhoH6KxfnkobS3mW8WIrLi0LkbIoComuGgkrNFDC0/9bnBMARn6Xo+JVA
Ilk94ahTZw0o4ytEAm/6/rh5WA9Qol+oa7LAHw6fMUIWsBmdxEuDkqUYF6wqHak0
jDqtWRRKUtS5KN+AqXL4jqQVqLHfppL7lvgDO/ur6PKXwkpehV136qVzSDizCjiX
W7O0NAwl05yO7p0CW3s+nT/wwIlSsOHwsqfEqWntUeZNao+UzQQ0xDn4YGPr4rm6
I9L6bP2Q4fc8Nn8ooMbV9skTL+uqtmcew2EMAwZek4tF0VGxyA3o5xwYymi7Ln6U
rnAhpMafLcTW42xJzZZrw3mjnbtl6vLcSFqVksj7z2rwCxVdv3wnswyXFqeZ+Ph9
9GmhQQyK9HrOceOtGu4nC5nGtCpJh1yutSMnz9LVQ0+KWwq1mniZkMWQK9AwJBOT
VvY56CgQYLlIDqtFG4SYyyMQPNFPOXuoVCZGiofy1O6svnCOxGm310vsVZWHRdmN
Wgtk1etfDK1fajq2am+eXuIz7RX4ftxXOn0TSjOA0ZBexL3Gv6ZAmTjyTT1CRYRo
K603MiD0CZOsp70CxHoX1Oo73/RdhzRLIB7He+mwwpzoyjU14WG+HEQmorZ1Fswv
0E54Zqs/eE7iI1oNxQGL6hBNzo+njjP0Qki89s8ZKiwCTRb2Tf1rXhQdlXA9X6aS
+fT0lPZWw+OMkWpKnmsNfX4HFjyNHTltL1MTo+3glqHaNTFSen8NTB4yD9bgucaq
+oaQqCJ1OR+gENQ4Ovv3tLf9Xl1lNn7oEn83gj5Eub+r+9JF8ipokh42s/zVM1aE
RZb/8by1rsOm1Fl7bgbRBnRdGULQtJzXTUULhrjSPJ3zzfDuR6ksyMRry7F6qE06
vyqEEkuoN5tuHMcrYufdtF70rhDlHldRTkgNtA4gPV/pUeDZ0yGO1FetC/LgxaWG
bq8Q5ukkIvjTi2+DxPoPRQAaE/SmyarYPAJ1SffALtZEzZYHkA87D3VIM6gtcNRF
wCsm1lOhczOz8ksQF5r6zFLozaIGp76Iwit3tgwZBrsJIUbzhWMNpRAeHnk+wV8J
ZMN5kejOjPOKTTHoOfJiDktDLiektuytFjiTVr9uVRiUKpe5BKVPbZ3EbBA7DcBv
9XsFEr85OzgeFaYtkFmNNeNf4+hCPalm7FH3VldWr23z2UCf0p0+XAr7YARheKCR
v8TB00h3IeJHiaecdlcH82sLXlnUXglqwHWI/JvFFPPPVm2MZGm4mo5NQMMdY7X3
XLwgbfH3wx041xgKpIgeLcoLVhfZz+EQYH3ljkIbcFG2zwZfGRFl/3SpJvL2ASUf
E0LGNpigpQ1l22Sh/0B/ZBRl27crvzXnWHTqOXiOMYI3zSaQN9PUOt4hENE4ISgR
b1O3c29Habyp4ahGWjSdyIDO1jq+uqIFUCBGPsAtAqh+e8PxDnon6CL5OTSd8IUd
9tWflQdkP6ZlHmPkuZy4lkIlrqMcz+B2VTbn1swTpffQrgA+eLRGykYRuj+QmSrK
tfVqV9JSA7qD69YNtOzuEm7ccz+qPV3Nes0pIFbGKqK1OChRZc6GSilYaAr7iRG+
gqjxXfLQgFNcraADrYeMvfp/Uuy0TgpYw3Zal/xHhbq/knxcXMIym7ueMbd/Soku
wIkLZgUBovfvIpJz/m7Ld+t/qGQigQ5c5ZQkdGfxR+KJZtilDG9g6D4gjNaVqmI0
KjOffMZHKVotUfQw6TkV3vhjpmY/vK9GoizfMGPiVkjoikgcXtYxPm0QKFhFC3c7
2RNeOYfK8kowS2iKHdQjL4W2V2rXp5P4ORc0j3tOzNt19AYcvzBHpnthnQGSF3Z5
enL1GCZeJm+mTTxpU8ukVy2f2VqTI4L5CuriK64o5jXg7saB2s22tNKOEjLu8HW+
uyfw/owyM3xo4z79ClyvkVkMhdcUru98Fb61WZGu2A05kIlUe+J7nfSWSDjvJkcE
rxOGHa3Ajl6YJOuLLJ1WyPQmpj5cD+A9hh9UzLHKjv2cV4SBf5KNZuAD4EcGMUiL
dbJn1TM0P6EUOEiYctefMKKnq+3/z7CvLlelmUlDW8cZRA15pk5kW0jqO4/fZhGV
WB0KpeOTW9tU/lYyV5rYibNPNG2bOo3tDFQmLG6EeJ+gqmOyESrvOi5Q00zyZHqF
HSigywpHL8jVDtJjYbQ4t2q0msAAKWp8gldxGM/HkTn2zE19AfztWStZ43bvrg7q
/n53zmpVFtuAlI7sv7OrzDgri2qqzcbQV5yKC0gYe3SR5l/13AA2D/9M8v7tJJqJ
84WI4y5sKl6RlXscm8LIYFKrro+qMMeMiTV6P3bzS+Ae3v3ZrD4stbMRpFptgS+J
Q5J4LfM7BEEaptn6DiqqWvtRrcreWc+bNRwDOjvf1B8fG4lgJ19cqWWtxrc+Lwjb
PN2UHkmrt4Y197IAH34GMPK87+CnYwtsF9cKGVU+Ash7APAbKjwErrQ3TKwg7gRc
Hrt4U+EvMfDzKao5I46dShBB4qUmHZ6QgwIriSUkYJ1JwMzOxXwmtp/NCfSfj9y+
sSabiRj3rP1UEgqpmxyI9qRA1+HMlBdixpVXNgk3zzxobenkxUEitxm2OD8wY/Vo
44xCDrRTO8yiY/YKZ5/+oaG4Dx3/Gwjiz7/aZ2K2dLZvFxau+zyLLLTo24oIBQ1g
63b4u1l7YKso0B3ENn24GolOAi1Jdr99cOE5ppfLs/uammVA9Jef3m3Y3+2yM564
njwMS6cvyVJJmw83cBjU41GN+obayMsPX/yDShNvbmF9wuY1Yf4iEPbigK9lFozL
zm8oiHjPc8IxChcXlChhIBOpTbdd4MWypZDmLWHEMHHIiyUecWp+mlkUb0VXNjmp
3VNB4+7BcZ3yMRmxjkSJKYG0XL8O3s7nji0KiTov+18eDkAYmcJfP93ITewsv8g4
kkytc2nrAgQwrI1v8VQAoCBsJ1B56HM5VItf/6/OPgMM5Djn+RVErwYYarnb6oVF
YlM1WYX8X4BOLE5YYFMLxHHxr88MJQxC8gJjWOsmj6RWrjtAKVamJmEz2iRCEq2K
kYN7tB+3dKgVBx0G97tdL0mFO9WSA59yEI9D3+It+VXxHlxXkplOU5YQudDTLgDD
nhXI2MMSEa7buJGTQILbd2zyUHb4w+GQGRS/ob2n3tNd0BMzwxM7A4/D
=h17k
-----END PGP MESSAGE-----
